icons/3_Generic/Cloud.svg

<svg xmlns="http://www.w3.org/2000/svg" viewBox="0 0 1024 1024">
   <circle cx="512" cy="512" r="512" style="fill:#6750a4"/>
   <path d="M590.09 289.09c-80.8.07-154.4 46.45-189.33 119.31-82.39-14.03-160.56 41.38-174.59 123.78-14.03 82.39 41.38 160.56 123.78 174.59 8.38 1.43 16.86 2.14 25.35 2.15h214.79c115.93 0 209.91-93.98 209.91-209.91S706.02 289.1 590.09 289.1Zm0 390.53H375.3c-67.4 0-122.04-54.64-122.04-122.04S307.9 435.54 375.3 435.54c4.82 0 9.64.29 14.43.85a208.976 208.976 0 0 0-9.54 62.61c0 8.09 6.56 14.64 14.64 14.64s14.64-6.56 14.64-14.64c0-99.75 80.87-180.62 180.62-180.62S770.71 399.25 770.71 499s-80.87 180.62-180.62 180.62Z" style="fill:#fff"/>
</svg>

<svg width="1024" height="1024" viewBox="0 0 1024 1024" fill="none" xmlns="http://www.w3.org/2000/svg">
<g clip-path="url(#clip0_3_464)">
<path d="M512 1024C794.77 1024 1024 794.77 1024 512C1024 229.23 794.77 0 512 0C229.23 0 0 229.23 0 512C0 794.77 229.23 1024 512 1024Z" fill="#8C72BD"/>
<path d="M590.09 289.09C509.29 289.16 435.69 335.54 400.76 408.4C318.37 394.37 240.2 449.78 226.17 532.18C212.14 614.57 267.55 692.74 349.95 706.77C358.33 708.2 366.81 708.91 375.3 708.92H590.09C706.02 708.92 800 614.94 800 499.01C800 383.08 706.02 289.1 590.09 289.1V289.09ZM590.09 679.62H375.3C307.9 679.62 253.26 624.98 253.26 557.58C253.26 490.18 307.9 435.54 375.3 435.54C380.12 435.54 384.94 435.83 389.73 436.39C383.388 456.654 380.171 477.766 380.19 499C380.19 507.09 386.75 513.64 394.83 513.64C402.91 513.64 409.47 507.08 409.47 499C409.47 399.25 490.34 318.38 590.09 318.38C689.84 318.38 770.71 399.25 770.71 499C770.71 598.75 689.84 679.62 590.09 679.62Z" fill="white"/>
</g>
<defs>
<clipPath id="clip0_3_464">
<rect width="1024" height="1024" fill="white"/>
</clipPath>
</defs>
</svg>
